X:1
T:James Gibb editions
T:Alma afflitta - Saracini
T:#
%%score 1 2
L:1/8
Q:1/4=90
M:4/4
K:F
V:1 treble nm="Soprano"
V:2 bass nm="Continuo"
V:1
"^Alma afflitta""^Claudio Saracini\n(1586-1630)" B2 c2 d4- | d4 A3 B | G8 | G8 | z ddd _e4- | %5
w: Al- m'af- flit\-|* ta, che|fa-|i,|chi ti da- rà|
[M:4/4] e4 G4 | ^F8 | ^F8 | z2 cc c2 cc | (d/c/d/e/) f4- fd | =B6 c2 | d8 | c8 | (d3 e) f4 | %14
w: * più|vi-|ta,|se co- lei, per cui|vi\- * * * vi, * og-|gi~~è par-|ti-|ta?|Ah\- * i,|
 Bc d4 G2 | D4 D4 | (c3 d) _e4 | AB c4 F2 | C4 C4 | F4 AAAB | c2 G2 BBBc | d4 z cBA | G8 | F8 | %24
w: son ben fol- l'e|cie- co,|ah\- * i|son ben fol- l'e|cie- co,|con l'al- ma~~a ra- gio-|nar, con l'al- ma~~a ra- gio-|nar che non è|me-|co,|
 A2 cc cd _e2 | z _edc d4 | c8 | B2 dd de d2 | z BAG A4 | G8 :| %30
w: con l'al- ma~~a ra- gio- nar|che non è me-|co,|con l'al- ma~~a ra- gio- nar|che non è me-|co.|
V:2
 G,,8 | ^F,,8 | G,,8- | G,,8 | G,4 C,4 |[M:4/4] _E,8 | D,8 | D,,8 | F,,8 | B,,8 | G,,8- | G,,8 | %12
 C,8 | B,,8 | G,,8 | D,8 | C,8 | F,,8 | C,8 | F,8- | F,2 G,6 | G,4 F,4 | C,8 | F,,8- | F,,6 C,2- | %25
 C,4 G,,4 | C,8 | G,,4 D,4 | z B,,C,_E, D,4 | G,,8 :| %30

